build/img/svg/level-noize.svg

<svg width="170" height="58" viewBox="0 0 170 58" fill="none" xmlns="http://www.w3.org/2000/svg">
<g opacity="0.8" clip-path="url(#clip0_301_3)">
<path d="M25.5676 5.10952C25.3316 5.00507 25.0705 4.97308 24.8167 5.01753C24.563 5.06198 24.3277 5.18091 24.1402 5.35952L10.5649 18.3333H1.3186C1.1454 18.3331 0.973858 18.3675 0.813804 18.4345C0.65375 18.5014 0.508324 18.5997 0.385848 18.7235C0.263372 18.8474 0.166251 18.9945 0.100042 19.1564C0.0338338 19.3183 -0.000161979 19.4918 5.80243e-07 19.667V38.3333C-0.000161979 38.5085 0.0338338 38.682 0.100042 38.8439C0.166251 39.0058 0.263372 39.1529 0.385848 39.2767C0.508324 39.4006 0.65375 39.4989 0.813804 39.5658C0.973858 39.6328 1.1454 39.6672 1.3186 39.667H10.5649L24.1402 52.6358C24.3274 52.8148 24.5623 52.9344 24.816 52.9798C25.0696 53.0253 25.3309 52.9946 25.5675 52.8916C25.8041 52.7885 26.0057 52.6177 26.1474 52.4C26.289 52.1824 26.3646 51.9276 26.3646 51.667V6.33327C26.3647 6.07278 26.2892 5.81799 26.1476 5.60047C26.0059 5.38295 25.8042 5.21225 25.5676 5.10952ZM23.7274 48.5733L11.9935 37.3645C11.749 37.1305 11.4254 37 11.0889 36.9995H2.63597V20.9995H11.0889C11.4253 20.9995 11.7489 20.8694 11.9935 20.6358L23.7336 9.42702L23.7274 48.5733Z" fill="white"/>
<path d="M45.9793 5.24996C45.6958 5.05465 45.3482 4.97877 45.0103 5.03842C44.6724 5.09808 44.3708 5.28857 44.1695 5.56947C43.9681 5.85038 43.8829 6.19958 43.932 6.54297C43.981 6.88636 44.1604 7.19691 44.4321 7.40871C47.8155 9.87276 50.5713 13.1152 52.4721 16.8685C54.3728 20.6218 55.3641 24.7785 55.3641 28.9956C55.3641 33.2127 54.3728 37.3693 52.4721 41.1227C50.5713 44.876 47.8155 48.1184 44.4321 50.5825C44.2069 50.748 44.0394 50.9814 43.9534 51.2493C43.8674 51.5171 43.8674 51.8055 43.9534 52.0733C44.0394 52.3411 44.207 52.5745 44.4322 52.74C44.6574 52.9056 44.9286 52.9948 45.2069 52.995C45.4841 52.9968 45.7547 52.9092 45.9793 52.745C49.6914 50.0243 52.7152 46.4548 54.8042 42.3274C56.8932 38.2001 57.9882 33.6317 58 28.995C58 19.6475 53.5103 10.77 45.9793 5.24996Z" fill="white"/>
<path d="M38.8043 13.2051C38.6577 13.1042 38.4926 13.0341 38.3187 12.9992C38.1447 12.9642 37.9657 12.9651 37.7921 13.0018C37.6185 13.0385 37.4541 13.1102 37.3085 13.2127C37.163 13.3152 37.0394 13.4462 36.9451 13.5981C36.8508 13.75 36.7878 13.9196 36.7598 14.0967C36.7318 14.2738 36.7394 14.4548 36.7821 14.6288C36.8248 14.8029 36.9018 14.9664 37.0085 15.1097C37.1152 15.253 37.2493 15.373 37.4029 15.4626C39.6723 16.8982 41.5436 18.8939 42.8409 21.2621C44.1381 23.6303 44.8188 26.2933 44.8188 29.0008C44.8188 31.7082 44.1381 34.3712 42.8409 36.7394C41.5436 39.1076 39.6723 41.1033 37.4029 42.5389C37.1209 42.7332 36.9244 43.0305 36.8546 43.3683C36.7848 43.7061 36.8472 44.0581 37.0286 44.3504C37.21 44.6426 37.4964 44.8524 37.8275 44.9356C38.1586 45.0187 38.5088 44.9688 38.8043 44.7964C41.4513 43.1208 43.6339 40.7921 45.1468 38.0291C46.6598 35.266 47.4536 32.1593 47.4536 29.0008C47.4536 25.8422 46.6598 22.7355 45.1468 19.9725C43.6339 17.2094 41.4513 14.8807 38.8043 13.2051Z" fill="white"/>
<path d="M33.7066 22.5989C33.5683 22.4878 33.4094 22.406 33.2393 22.3582C33.0692 22.3104 32.8914 22.2977 32.7163 22.3207C32.5412 22.3438 32.3725 22.4022 32.2202 22.4924C32.0678 22.5826 31.935 22.7029 31.8294 22.8461C31.7239 22.9892 31.6479 23.1524 31.6058 23.3258C31.5638 23.4992 31.5566 23.6795 31.5848 23.8557C31.6129 24.032 31.6757 24.2008 31.7695 24.3521C31.8634 24.5034 31.9862 24.634 32.1309 24.7364C32.7946 25.2265 33.3345 25.8681 33.7067 26.6092C34.0789 27.3502 34.2729 28.1696 34.2729 29.0007C34.2729 29.8319 34.0789 30.6513 33.7067 31.3923C33.3345 32.1333 32.7946 32.775 32.1309 33.2651C31.9862 33.3674 31.8634 33.4981 31.7695 33.6494C31.6757 33.8007 31.6129 33.9694 31.5848 34.1457C31.5566 34.322 31.5638 34.5022 31.6058 34.6757C31.6479 34.8491 31.7239 35.0123 31.8294 35.1554C31.935 35.2986 32.0678 35.4188 32.2202 35.5091C32.3725 35.5993 32.5412 35.6577 32.7163 35.6808C32.8914 35.7038 33.0692 35.6911 33.2393 35.6433C33.4094 35.5955 33.5683 35.5137 33.7066 35.4026C34.6995 34.6645 35.5068 33.7004 36.0632 32.5882C36.6196 31.4761 36.9096 30.2472 36.9096 29.0007C36.9096 27.7543 36.6196 26.5254 36.0632 25.4133C35.5068 24.3011 34.6995 23.337 33.7066 22.5989Z" fill="white"/>
</g>
<path d="M79.6328 23H77.3745V17.3604H71.3076V23H69.0371V9.79199H71.3076V15.5171H77.3745V9.79199H79.6328V23ZM88.7515 23.2441C86.9611 23.2441 85.5044 22.6582 84.3813 21.4863C83.2583 20.3063 82.6968 18.7316 82.6968 16.7622V16.3472C82.6968 15.0369 82.945 13.8691 83.4414 12.8438C83.946 11.8102 84.6458 11.0046 85.541 10.4268C86.4443 9.84082 87.4209 9.54785 88.4707 9.54785C90.1878 9.54785 91.5225 10.1134 92.4746 11.2446C93.4268 12.3758 93.9028 13.9953 93.9028 16.103V17.043H84.9551C84.9876 18.3451 85.366 19.3989 86.0903 20.2046C86.8228 21.0021 87.7505 21.4009 88.8735 21.4009C89.6711 21.4009 90.3465 21.2381 90.8999 20.9126C91.4533 20.5871 91.9375 20.1558 92.3525 19.6187L93.7319 20.6929C92.6252 22.3937 90.965 23.2441 88.7515 23.2441ZM88.4707 11.4033C87.5592 11.4033 86.7943 11.737 86.1758 12.4043C85.5573 13.0635 85.1748 13.9912 85.0283 15.1875H91.6445V15.0166C91.5794 13.8691 91.2702 12.9821 90.7168 12.3555C90.1634 11.7207 89.4147 11.4033 88.4707 11.4033ZM108.527 10.5488C110.187 10.5488 111.514 11.1063 112.506 12.2212C113.507 13.328 114.008 14.7887 114.008 16.6035V16.811C114.008 18.0562 113.768 19.1711 113.288 20.1558C112.807 21.1323 112.116 21.8932 111.212 22.4385C110.317 22.9756 109.284 23.2441 108.112 23.2441C106.338 23.2441 104.91 22.6541 103.827 21.4741C102.745 20.286 102.204 18.695 102.204 16.7012V15.6025C102.204 12.8275 102.716 10.6221 103.742 8.98633C104.775 7.35059 106.297 6.35368 108.307 5.99561C109.446 5.79215 110.215 5.54395 110.614 5.25098C111.013 4.95801 111.212 4.55518 111.212 4.04248H113.068C113.068 5.05973 112.836 5.85319 112.372 6.42285C111.916 6.99251 111.184 7.39535 110.175 7.63135L108.49 8.00977C107.147 8.32715 106.138 8.86426 105.463 9.62109C104.796 10.3698 104.36 11.3708 104.157 12.624C105.353 11.2406 106.81 10.5488 108.527 10.5488ZM108.087 12.4043C106.981 12.4043 106.102 12.7786 105.451 13.5273C104.8 14.2679 104.474 15.2974 104.474 16.6157V16.811C104.474 18.2271 104.8 19.3501 105.451 20.1802C106.11 21.0021 106.997 21.4131 108.112 21.4131C109.235 21.4131 110.122 20.998 110.773 20.168C111.424 19.3379 111.75 18.1253 111.75 16.5303C111.75 15.2852 111.42 14.2882 110.761 13.5396C110.11 12.7827 109.219 12.4043 108.087 12.4043ZM115.949 16.2739C115.949 14.98 116.201 13.8162 116.706 12.7827C117.218 11.7492 117.926 10.9517 118.83 10.3901C119.741 9.82861 120.779 9.54785 121.942 9.54785C123.741 9.54785 125.194 10.1704 126.3 11.4155C127.415 12.6606 127.973 14.3167 127.973 16.3838V16.5425C127.973 17.8283 127.724 18.9839 127.228 20.0093C126.74 21.0265 126.036 21.82 125.116 22.3896C124.205 22.9593 123.155 23.2441 121.967 23.2441C120.176 23.2441 118.724 22.6216 117.609 21.3765C116.502 20.1313 115.949 18.4834 115.949 16.4326V16.2739ZM118.219 16.5425C118.219 18.0073 118.557 19.1833 119.232 20.0703C119.916 20.9574 120.827 21.4009 121.967 21.4009C123.114 21.4009 124.026 20.9533 124.701 20.0581C125.377 19.1548 125.714 17.8934 125.714 16.2739C125.714 14.8254 125.368 13.6535 124.677 12.7583C123.993 11.855 123.082 11.4033 121.942 11.4033C120.827 11.4033 119.928 11.8468 119.245 12.7339C118.561 13.6209 118.219 14.8905 118.219 16.5425ZM141.437 9.79199V23H139.167V11.6597H134.674L134.406 16.6035C134.259 18.874 133.877 20.4976 133.258 21.4741C132.648 22.4507 131.675 22.9593 130.341 23H129.438V21.0103L130.084 20.9614C130.817 20.88 131.342 20.4569 131.659 19.6919C131.977 18.9269 132.18 17.5109 132.27 15.4438L132.514 9.79199H141.437ZM150.543 23.2441C148.753 23.2441 147.296 22.6582 146.173 21.4863C145.05 20.3063 144.489 18.7316 144.489 16.7622V16.3472C144.489 15.0369 144.737 13.8691 145.233 12.8438C145.738 11.8102 146.438 11.0046 147.333 10.4268C148.236 9.84082 149.213 9.54785 150.263 9.54785C151.98 9.54785 153.314 10.1134 154.267 11.2446C155.219 12.3758 155.695 13.9953 155.695 16.103V17.043H146.747C146.78 18.3451 147.158 19.3989 147.882 20.2046C148.615 21.0021 149.542 21.4009 150.666 21.4009C151.463 21.4009 152.139 21.2381 152.692 20.9126C153.245 20.5871 153.729 20.1558 154.145 19.6187L155.524 20.6929C154.417 22.3937 152.757 23.2441 150.543 23.2441ZM150.263 11.4033C149.351 11.4033 148.586 11.737 147.968 12.4043C147.349 13.0635 146.967 13.9912 146.82 15.1875H153.437V15.0166C153.371 13.8691 153.062 12.9821 152.509 12.3555C151.955 11.7207 151.207 11.4033 150.263 11.4033ZM163.8 23.2441C162.01 23.2441 160.553 22.6582 159.43 21.4863C158.307 20.3063 157.746 18.7316 157.746 16.7622V16.3472C157.746 15.0369 157.994 13.8691 158.49 12.8438C158.995 11.8102 159.695 11.0046 160.59 10.4268C161.493 9.84082 162.47 9.54785 163.52 9.54785C165.237 9.54785 166.571 10.1134 167.523 11.2446C168.476 12.3758 168.952 13.9953 168.952 16.103V17.043H160.004C160.036 18.3451 160.415 19.3989 161.139 20.2046C161.872 21.0021 162.799 21.4009 163.922 21.4009C164.72 21.4009 165.395 21.2381 165.949 20.9126C166.502 20.5871 166.986 20.1558 167.401 19.6187L168.781 20.6929C167.674 22.3937 166.014 23.2441 163.8 23.2441ZM163.52 11.4033C162.608 11.4033 161.843 11.737 161.225 12.4043C160.606 13.0635 160.224 13.9912 160.077 15.1875H166.693V15.0166C166.628 13.8691 166.319 12.9821 165.766 12.3555C165.212 11.7207 164.464 11.4033 163.52 11.4033ZM88.7881 46.0308H91.2539V47.874H88.7881V52H86.5176V47.874H78.4243V46.5435L86.3833 34.2266H88.7881V46.0308ZM80.9878 46.0308H86.5176V37.3149L86.249 37.8032L80.9878 46.0308ZM104.438 44.4194C104.438 47.0643 103.986 49.0296 103.083 50.3154C102.179 51.6012 100.767 52.2441 98.8467 52.2441C96.9505 52.2441 95.5467 51.6175 94.6353 50.3643C93.7238 49.1029 93.2518 47.223 93.2192 44.7246V41.7095C93.2192 39.0972 93.6709 37.1562 94.5742 35.8867C95.4775 34.6172 96.8936 33.9824 98.8223 33.9824C100.735 33.9824 102.143 34.5968 103.046 35.8257C103.949 37.0464 104.413 38.9344 104.438 41.4897V44.4194ZM102.179 41.3311C102.179 39.4186 101.911 38.027 101.374 37.1562C100.836 36.2773 99.986 35.8379 98.8223 35.8379C97.6667 35.8379 96.8244 36.2733 96.2954 37.144C95.7664 38.0148 95.4938 39.3535 95.4775 41.1602V44.7734C95.4775 46.694 95.7542 48.1141 96.3076 49.0337C96.8691 49.9451 97.7155 50.4009 98.8467 50.4009C99.9616 50.4009 100.788 49.9696 101.325 49.1069C101.87 48.2443 102.155 46.8853 102.179 45.0298V41.3311ZM113.654 50.1567L114.435 49.1924C115.314 48.0531 115.814 46.3441 115.937 44.0654L116.144 38.792H124.652V50.1567H126.349V55.8818H124.091V52H114.875V55.8818H112.616L112.628 50.1567H113.654ZM116.327 50.1567H122.394V40.8794H118.329L118.195 44.0288C118.056 46.6574 117.434 48.7 116.327 50.1567ZM140.045 36.1553H131.476V41.4775H135.895C137.75 41.502 139.199 41.978 140.241 42.9058C141.282 43.8335 141.803 45.0949 141.803 46.6899C141.803 48.2931 141.278 49.5708 140.229 50.5229C139.179 51.4751 137.746 51.9674 135.932 52H129.12V34.2266H140.045V36.1553ZM131.476 43.4062V50.0835H135.761C136.924 50.0835 137.828 49.7743 138.471 49.1558C139.122 48.5373 139.447 47.7072 139.447 46.6655C139.447 45.6646 139.134 44.8752 138.507 44.2974C137.889 43.7196 137.006 43.4225 135.858 43.4062H131.476ZM154.792 47.3613H147.345L145.673 52H143.256L150.043 34.2266H152.094L158.893 52H156.488L154.792 47.3613ZM148.053 45.4326H154.096L151.068 37.1196L148.053 45.4326Z" fill="white"/>
<defs>
<clipPath id="clip0_301_3">
<rect width="58" height="48" fill="white" transform="translate(0 5)"/>
</clipPath>
</defs>
</svg>

<svg width="170" height="58" fill="none" xmlns="http://www.w3.org/2000/svg">
    <g opacity=".8" clip-path="url(#clip0_301_3)" fill="#fff">
        <path d="M25.568 5.11a1.3 1.3 0 00-1.428.25L10.565 18.333H1.319a1.303 1.303 0 00-.933.39 1.334 1.334 0 00-.386.944v18.666a1.346 1.346 0 00.386.944 1.315 1.315 0 00.933.39h9.246L24.14 52.636a1.312 1.312 0 001.427.256c.237-.104.439-.274.58-.492.142-.218.218-.472.218-.733V6.333c0-.26-.076-.515-.217-.733a1.32 1.32 0 00-.58-.49zm-1.84 43.463L11.992 37.364A1.31 1.31 0 0011.09 37H2.636V21h8.453c.336 0 .66-.13.904-.364l11.74-11.209-.006 39.146zM45.98 5.25a1.307 1.307 0 00-1.81.32 1.345 1.345 0 00.262 1.839 26.519 26.519 0 018.04 9.46 26.849 26.849 0 012.892 12.127c0 4.217-.991 8.373-2.892 12.127a26.52 26.52 0 01-8.04 9.46 1.348 1.348 0 000 2.157 1.309 1.309 0 001.547.005 29.333 29.333 0 008.825-10.418A29.697 29.697 0 0058 28.995c0-9.348-4.49-18.225-12.02-23.745z"/>
        <path d="M38.804 13.205a1.312 1.312 0 00-1.495.008 1.328 1.328 0 00-.55.884 1.35 1.35 0 00.25 1.013c.106.143.24.263.394.353a15.893 15.893 0 015.438 5.8A16.112 16.112 0 0144.819 29c0 2.707-.68 5.37-1.978 7.738a15.893 15.893 0 01-5.438 5.8 1.347 1.347 0 00-.374 1.812 1.306 1.306 0 001.776.446 18.546 18.546 0 006.342-6.768 18.802 18.802 0 002.307-9.028c0-3.159-.794-6.266-2.307-9.029a18.546 18.546 0 00-6.343-6.767z"/>
        <path d="M33.707 22.599a1.314 1.314 0 00-.99-.278 1.31 1.31 0 00-.888.525 1.342 1.342 0 00.302 1.89 5.263 5.263 0 011.576 1.873 5.33 5.33 0 010 4.783 5.264 5.264 0 01-1.576 1.873 1.328 1.328 0 00-.546.88 1.348 1.348 0 00.244 1.01 1.325 1.325 0 00.887.526 1.305 1.305 0 00.99-.278 7.921 7.921 0 002.357-2.815 8.02 8.02 0 000-7.175 7.921 7.921 0 00-2.356-2.814z"/>
    </g>
    <path d="M79.633 23h-2.258v-5.64h-6.067V23h-2.27V9.792h2.27v5.725h6.066V9.792h2.259V23zm9.118.244c-1.79 0-3.247-.586-4.37-1.758-1.123-1.18-1.684-2.754-1.684-4.724v-.415c0-1.31.248-2.478.744-3.503.505-1.034 1.205-1.84 2.1-2.417a5.282 5.282 0 012.93-.88c1.717 0 3.051.566 4.004 1.698.952 1.13 1.428 2.75 1.428 4.858v.94h-8.948c.033 1.302.411 2.356 1.135 3.162.733.797 1.66 1.196 2.784 1.196.797 0 1.473-.163 2.026-.488a5.09 5.09 0 001.453-1.294l1.379 1.074c-1.107 1.7-2.767 2.551-4.98 2.551zm-.28-11.84c-.912 0-1.677.333-2.295 1-.619.66-1.001 1.587-1.148 2.784h6.616v-.171c-.065-1.148-.374-2.035-.927-2.662-.554-.634-1.302-.952-2.246-.952zm20.056-.855c1.66 0 2.987.557 3.979 1.672 1.001 1.107 1.502 2.568 1.502 4.383v.207c0 1.245-.24 2.36-.72 3.345a5.375 5.375 0 01-2.076 2.283c-.895.537-1.928.805-3.1.805-1.774 0-3.202-.59-4.285-1.77-1.082-1.188-1.623-2.779-1.623-4.773v-1.099c0-2.774.512-4.98 1.538-6.616 1.033-1.635 2.555-2.632 4.565-2.99 1.139-.204 1.908-.452 2.307-.745s.598-.696.598-1.209h1.856c0 1.018-.232 1.811-.696 2.38-.456.57-1.188.973-2.197 1.21l-1.685.378c-1.343.317-2.352.854-3.027 1.611-.667.749-1.103 1.75-1.306 3.003 1.196-1.383 2.653-2.075 4.37-2.075zm-.44 1.855c-1.106 0-1.985.375-2.636 1.123-.651.74-.977 1.77-.977 3.089v.195c0 1.416.326 2.54.977 3.37.659.821 1.546 1.232 2.661 1.232 1.123 0 2.01-.415 2.661-1.245.651-.83.977-2.043.977-3.638 0-1.245-.33-2.242-.989-2.99-.651-.757-1.542-1.136-2.674-1.136zm7.862 3.87c0-1.294.252-2.458.757-3.491.512-1.034 1.22-1.831 2.124-2.393.911-.561 1.949-.842 3.112-.842 1.799 0 3.252.622 4.358 1.867 1.115 1.246 1.673 2.902 1.673 4.969v.159c0 1.285-.249 2.44-.745 3.466-.488 1.017-1.192 1.811-2.112 2.38-.911.57-1.961.855-3.149.855-1.791 0-3.243-.622-4.358-1.867-1.107-1.246-1.66-2.894-1.66-4.944v-.16zm2.27.268c0 1.465.338 2.641 1.013 3.528.684.887 1.595 1.33 2.735 1.33 1.147 0 2.059-.447 2.734-1.342.676-.903 1.013-2.165 1.013-3.784 0-1.449-.346-2.62-1.037-3.516-.684-.903-1.595-1.355-2.735-1.355-1.115 0-2.014.444-2.697 1.33-.684.888-1.026 2.157-1.026 3.81zm23.218-6.75V23h-2.27V11.66h-4.493l-.268 4.944c-.147 2.27-.529 3.894-1.148 4.87-.61.977-1.583 1.485-2.917 1.526h-.903v-1.99l.646-.049c.733-.081 1.258-.504 1.575-1.27.318-.764.521-2.18.611-4.247l.244-5.652h8.923zm9.106 13.452c-1.79 0-3.247-.586-4.37-1.758-1.123-1.18-1.684-2.754-1.684-4.724v-.415c0-1.31.248-2.478.744-3.503.505-1.034 1.205-1.84 2.1-2.417a5.281 5.281 0 012.93-.88c1.717 0 3.051.566 4.004 1.698.952 1.13 1.428 2.75 1.428 4.858v.94h-8.948c.033 1.302.411 2.356 1.135 3.162.733.797 1.66 1.196 2.784 1.196.797 0 1.473-.163 2.026-.488a5.11 5.11 0 001.453-1.294l1.379 1.074c-1.107 1.7-2.767 2.551-4.981 2.551zm-.28-11.84c-.912 0-1.677.333-2.295 1-.619.66-1.001 1.587-1.148 2.784h6.617v-.171c-.066-1.148-.375-2.035-.928-2.662-.554-.634-1.302-.952-2.246-.952zm13.537 11.84c-1.79 0-3.247-.586-4.37-1.758-1.123-1.18-1.684-2.754-1.684-4.724v-.415c0-1.31.248-2.478.744-3.503.505-1.034 1.205-1.84 2.1-2.417a5.281 5.281 0 012.93-.88c1.717 0 3.051.566 4.003 1.698.953 1.13 1.429 2.75 1.429 4.858v.94h-8.948c.032 1.302.411 2.356 1.135 3.162.733.797 1.66 1.196 2.783 1.196.798 0 1.473-.163 2.027-.488a5.093 5.093 0 001.452-1.294l1.38 1.074c-1.107 1.7-2.767 2.551-4.981 2.551zm-.28-11.84c-.912 0-1.677.333-2.295 1-.619.66-1.001 1.587-1.148 2.784h6.616v-.171c-.065-1.148-.374-2.035-.927-2.662-.554-.634-1.302-.952-2.246-.952zM88.788 46.03h2.466v1.843h-2.466V52h-2.27v-4.126h-8.094v-1.33l7.96-12.317h2.404V46.03zm-7.8 0h5.53v-8.716l-.269.488-5.261 8.228zm23.45-1.612c0 2.645-.452 4.61-1.355 5.896-.904 1.286-2.316 1.93-4.236 1.93-1.896 0-3.3-.627-4.212-1.88-.911-1.262-1.383-3.142-1.416-5.64v-3.016c0-2.612.452-4.553 1.355-5.822.904-1.27 2.32-1.905 4.248-1.905 1.913 0 3.321.615 4.224 1.844.903 1.22 1.367 3.108 1.392 5.664v2.93zm-2.259-3.088c0-1.912-.268-3.304-.805-4.175-.538-.879-1.388-1.318-2.552-1.318-1.155 0-1.998.435-2.527 1.306-.529.87-.801 2.21-.817 4.016v3.613c0 1.921.276 3.341.83 4.26.561.912 1.407 1.368 2.539 1.368 1.115 0 1.941-.431 2.478-1.294.545-.863.83-2.222.854-4.077V41.33zm11.475 8.826l.781-.965c.879-1.139 1.379-2.848 1.502-5.127l.207-5.273h8.508v11.365h1.697v5.725h-2.258V52h-9.216v3.882h-2.259l.012-5.725h1.026zm2.673 0h6.067v-9.278h-4.065l-.134 3.15c-.139 2.628-.761 4.671-1.868 6.128zm23.718-14.002h-8.569v5.322h4.419c1.855.025 3.304.501 4.346 1.429 1.041.928 1.562 2.189 1.562 3.784 0 1.603-.525 2.88-1.574 3.833-1.05.952-2.483 1.444-4.297 1.477h-6.812V34.227h10.925v1.928zm-8.569 7.251v6.678h4.285c1.163 0 2.067-.31 2.71-.928.651-.619.976-1.449.976-2.49 0-1.001-.313-1.79-.94-2.369-.618-.577-1.501-.874-2.649-.89h-4.382zm23.316 3.955h-7.447L145.673 52h-2.417l6.787-17.773h2.051L158.893 52h-2.405l-1.696-4.639zm-6.739-1.928h6.043l-3.028-8.313-3.015 8.313z" fill="#fff"/>
    <defs>
        <clipPath id="clip0_301_3">
            <path fill="#fff" transform="translate(0 5)" d="M0 0h58v48H0z"/>
        </clipPath>
    </defs>
</svg>
